docs/img/icons/arrow-black.svg

<svg width="58" height="58" viewBox="0 0 58 58" fill="none" xmlns="http://www.w3.org/2000/svg">
<path d="M0 0H53C55.7614 0 58 2.23858 58 5V58H5C2.23858 58 0 55.7614 0 53V0Z" fill="#111111"/>
<path fill-rule="evenodd" clip-rule="evenodd" d="M37 29C37 29.5523 36.5523 30 36 30L22 30C21.4477 30 21 29.5523 21 29C21 28.4477 21.4477 28 22 28H36C36.5523 28 37 28.4477 37 29Z" fill="white"/>
<path fill-rule="evenodd" clip-rule="evenodd" d="M28.2929 36.7071C27.9024 36.3166 27.9024 35.6834 28.2929 35.2929L34.5858 29L28.2929 22.7071C27.9024 22.3166 27.9024 21.6834 28.2929 21.2929C28.6834 20.9024 29.3166 20.9024 29.7071 21.2929L36.7071 28.2929C37.0976 28.6834 37.0976 29.3166 36.7071 29.7071L29.7071 36.7071C29.3166 37.0976 28.6834 37.0976 28.2929 36.7071Z" fill="white"/>
</svg>

<svg width="58" height="58" fill="none" xmlns="http://www.w3.org/2000/svg"><path d="M0 0h53a5 5 0 015 5v53H5a5 5 0 01-5-5V0z" fill="#111"/><path fill-rule="evenodd" clip-rule="evenodd" d="M37 29a1 1 0 01-1 1H22a1 1 0 110-2h14a1 1 0 011 1z" fill="#fff"/><path fill-rule="evenodd" clip-rule="evenodd" d="M28.293 36.707a1 1 0 010-1.414L34.586 29l-6.293-6.293a1 1 0 011.414-1.414l7 7a1 1 0 010 1.414l-7 7a1 1 0 01-1.414 0z" fill="#fff"/></svg>
